icons/social-twitch-original.svg

<svg viewBox="0 0 24 24"><path fill="#fff" d="m20.6 11.1-3.5 3.5h-3.4l-3 3v-3h-3.8v-12.9h13.7z"/><path fill="#9146ff" d="m6 0-4.3 4.3v15.4h5.2v4.3l4.2-4.3h3.5l7.7-7.7v-12zm14.6 11.1-3.5 3.5h-3.4l-3 3v-3h-3.8v-12.9h13.7z"/><path fill="#9146ff" d="M18 4.7h-1.7v5.2h1.7zm-4.7 0h-1.7v5.2h1.7z"/></svg>

<svg viewBox="0 0 24 24"><path fill="#fff" d="M20.6 11.1 17 14.6h-3.4l-3 3v-3H7V1.7h13.7z"/><path fill="#9146ff" d="M6 0 1.7 4.3v15.4H7V24l4.2-4.3h3.5l7.7-7.7V0zm14.6 11.1L17 14.6h-3.4l-3 3v-3H7V1.7h13.7z"/><path fill="#9146ff" d="M18 4.7h-1.7V10H18zm-4.7 0h-1.7V10h1.7z"/></svg>
